html-css/hw-11/module-11/build/images/services/icon__services/creativity.svg

<svg xmlns="http://www.w3.org/2000/svg" width="32" height="28"><path fill="#95E1D3" d="M30 23h-9.5v2.499l2 2.001v.5h-13v-.5l2-2.001V23H2a1.5 1.5 0 01-1.5-1.501V1.5A1.5 1.5 0 012 0h28a1.5 1.5 0 011.5 1.5v19.999A1.5 1.5 0 0130 23zm-.5-21h-27v17h27V2zM13 9c.414 0 .789.168 1.061.439l.939.939 2.939-2.939a1.5 1.5 0 112.122 2.122l-4 4a1.499 1.499 0 01-2.122 0l-2-2.001A1.5 1.5 0 0113 9z"/></svg>

<svg 
 xmlns="http://www.w3.org/2000/svg"
 xmlns:xlink="http://www.w3.org/1999/xlink"
 width="32px" height="28px">
<path fill="rgb(149, 225, 211)"
 d="M30.000,23.000 L22.500,23.000 L20.500,23.000 L20.500,25.499 L22.500,27.500 L22.500,28.000 L9.500,28.000 L9.500,27.500 L11.500,25.499 L11.500,23.000 L9.500,23.000 L2.000,23.000 C1.172,23.000 0.500,22.328 0.500,21.499 L0.500,1.500 C0.500,0.671 1.172,-0.000 2.000,-0.000 L30.000,-0.000 C30.828,-0.000 31.500,0.671 31.500,1.500 L31.500,21.499 C31.500,22.328 30.828,23.000 30.000,23.000 ZM29.500,2.000 L2.500,2.000 L2.500,19.000 L29.500,19.000 L29.500,2.000 ZM13.000,9.000 C13.414,9.000 13.789,9.168 14.061,9.439 L14.061,9.439 L15.000,10.378 L17.939,7.439 L17.939,7.439 C18.211,7.167 18.586,7.000 19.000,7.000 C19.828,7.000 20.500,7.671 20.500,8.500 C20.500,8.914 20.332,9.289 20.061,9.561 L20.061,9.561 L16.061,13.561 L16.061,13.561 C15.789,13.832 15.414,14.000 15.000,14.000 C14.586,14.000 14.211,13.832 13.939,13.561 L13.939,13.561 L11.939,11.560 L11.939,11.560 C11.668,11.289 11.500,10.914 11.500,10.500 C11.500,9.671 12.172,9.000 13.000,9.000 Z"/>
</svg>
